X:1
T:Rocky Road to Dublin  "1998.3"
M:3/4
L:1/8
Q:80
C:Traditional
S:Reel
K:HP
[| a/2 | \
e3/2d/2{g}B3/2G/2{g}A2 | \
{g}e3/2d/2{g}B3/2A/2{g}B3/2d/2 |
{g}e3/2d/2{g}B3/2G/2{g}A3/2{d}B/2 | \
{g}G3/2{d}G/2{e}G3/2A/2{g}B3/2d/2 | \
{g}e3/2d/2{g}B3/2G/2{g}A2 |
{g}e3/2d/2{g}B3/2A/2{g}B3/2d/2 | \
{g}e3/2d/2{g}B3/2G/2{g}A3/2{d}B/2 | \
{g}G3/2{d}G/2{e}G3/2A/2{g}B3/2d/2|] [ |
{g}e3/2a/2{g}a3/2f/2{gf}g2 | \
{a}e3/2a/2{g}a3/2d/2{g}((3Bcd) | \
{g}e3/2a/2{g}a3/2f/2g3/2e/2 |
{g}d3/2B/2{g}G3/2A/2{g}B3/2d/2 | \
{g}e3/2a/2{g}a3/2f/2{gf}g2 | \
{a}e3/2a/2{g}a3/2d/2{g}((3Bcd) |
{g}e3/2a/2{g}a3/2f/2g3/2e/2 | \
{g}d3/2c/2{g}B3/2c/2{g}d3/2e/2|]
